public/img/elephant.svg

<svg enable-background="new 0 0 333 416.2" viewBox="0 0 333 416.2" xmlns="http://www.w3.org/2000/svg"><path clip-rule="evenodd" d="m67.6 252.3c-31.8-11.3-63.6-54.3-63.6-88.2 0-36.9 26.7-67.7 58.4-67.7 15.4 0 27.7 5.1 36.9 14.4-22.6 21.5-33.8 54.3-32.8 89.2-12.3 20.5-9.2 39 1.1 52.3zm49.2-53.3c3.1 0 5.1 2.1 5.1 5.1s-2.1 6.2-5.1 6.2c-3.1 0-5.1-3.1-5.1-6.2s2-5.1 5.1-5.1zm99.4 0c-3.1 0-5.1 2.1-5.1 5.1s2.1 6.2 5.1 6.2c3.1 0 6.2-3.1 6.2-6.2s-3.1-5.1-6.2-5.1zm-49.2-105.6c-68.7 0-95.3 58.4-92.3 108.7-16.4 26.7-8.2 53.3 30.8 66.6-3.1 9.2-18.5 16.4-15.4 24.6 1 4.1 4.1 6.2 7.2 6.2 15.4 3.1 36.9-9.2 42-24.6 2.1-10.3-3.1-25.6-4.1-39 0-39 62.5-39 62.5 0-1 13.3-5.1 28.7-3.1 39 5.1 15.4 25.6 27.7 41 24.6 3.1 0 7.2-2.1 8.2-6.2 2.1-8.2-13.3-15.4-16.4-24.6 39-13.3 48.2-40 31.8-66.6 2.1-50.3-24.5-108.7-92.2-108.7zm-44.1 161c6.2 0 11.3 5.1 11.3 11.3 1 17.4-23.6 29.7-35.9 27.7-11.3-2.1 14.4-11.3 14.4-27.7 0-6.2 5.1-11.3 10.2-11.3zm87.2 0c-6.2 0-11.3 5.1-11.3 11.3-1 17.4 24.6 29.7 35.9 27.7 11.3-2.1-14.4-11.3-13.3-27.7 0-6.2-5.2-11.3-11.3-11.3zm-95.4-60.5c7.2 0 12.3 5.1 12.3 11.3 0 7.2-5.1 12.3-12.3 12.3s-12.3-5.1-12.3-12.3c0-6.2 5.1-11.3 12.3-11.3zm104.6 0c-7.2 0-13.3 5.1-13.3 11.3 0 7.2 6.2 12.3 13.3 12.3 6.2 0 12.3-5.1 12.3-12.3 0-6.2-6.1-11.3-12.3-11.3zm-35.9 122c0-5.1-2.1-6.2-5.1-9.2 8.2-22.6 13.3-61.5 13.3-70.7 0-30.8-50.2-30.8-50.2 0 0 9.2 6.2 48.2 14.4 70.7-4.1 3.1-6.2 4.1-6.2 9.2 0 9.2 33.8 9.2 33.8 0zm2.1-67.7c-11.3-8.2-26.7-8.2-36.9 0 9.2-19.5 26.6-19.5 36.9 0zm-3.1 21.5c-10.3-8.2-21.5-8.2-31.8 0 9.2-18.4 22.6-18.4 31.8 0zm-4.1 19.5c-8.2-6.2-14.4-6.2-23.6 0 8.2-15.4 16.4-15.4 23.6 0zm-5.1 24.6c0 3.1-12.3 3.1-12.3 0 0-3 12.3-3 12.3 0zm92.2-61.5c31.8-11.3 63.6-54.3 63.6-88.2 0-36.9-25.6-67.7-58.4-67.7-14.4 0-26.7 5.1-36.9 14.4 22.6 21.5 34.9 54.3 32.8 89.2 12.3 20.5 10.2 39-1.1 52.3z" fill-rule="evenodd"/></svg>

<?xml version="1.0" encoding="utf-8"?>
<!-- Generator: Adobe Illustrator 23.0.6, SVG Export Plug-In . SVG Version: 6.00 Build 0)  -->
<svg version="1.1" id="Layer_1" xmlns="http://www.w3.org/2000/svg" xmlns:xlink="http://www.w3.org/1999/xlink" x="0px" y="0px"
	 viewBox="0 0 333 416.2" style="enable-background:new 0 0 333 416.2;" xml:space="preserve">
<style type="text/css">
	.st0{fill-rule:evenodd;clip-rule:evenodd;}
</style>
<g>
	<path class="st0" d="M67.6,252.3C35.8,241,4,198,4,164.1c0-36.9,26.7-67.7,58.4-67.7c15.4,0,27.7,5.1,36.9,14.4
		c-22.6,21.5-33.8,54.3-32.8,89.2C54.2,220.5,57.3,239,67.6,252.3z M116.8,199c3.1,0,5.1,2.1,5.1,5.1s-2.1,6.2-5.1,6.2
		c-3.1,0-5.1-3.1-5.1-6.2S113.7,199,116.8,199z M216.2,199c-3.1,0-5.1,2.1-5.1,5.1s2.1,6.2,5.1,6.2c3.1,0,6.2-3.1,6.2-6.2
		S219.3,199,216.2,199z M167,93.4c-68.7,0-95.3,58.4-92.3,108.7c-16.4,26.7-8.2,53.3,30.8,66.6c-3.1,9.2-18.5,16.4-15.4,24.6
		c1,4.1,4.1,6.2,7.2,6.2c15.4,3.1,36.9-9.2,42-24.6c2.1-10.3-3.1-25.6-4.1-39c0-39,62.5-39,62.5,0c-1,13.3-5.1,28.7-3.1,39
		c5.1,15.4,25.6,27.7,41,24.6c3.1,0,7.2-2.1,8.2-6.2c2.1-8.2-13.3-15.4-16.4-24.6c39-13.3,48.2-40,31.8-66.6
		C261.3,151.8,234.7,93.4,167,93.4z M122.9,254.4c6.2,0,11.3,5.1,11.3,11.3c1,17.4-23.6,29.7-35.9,27.7
		c-11.3-2.1,14.4-11.3,14.4-27.7C112.7,259.5,117.8,254.4,122.9,254.4z M210.1,254.4c-6.2,0-11.3,5.1-11.3,11.3
		c-1,17.4,24.6,29.7,35.9,27.7c11.3-2.1-14.4-11.3-13.3-27.7C221.4,259.5,216.2,254.4,210.1,254.4z M114.7,193.9
		c7.2,0,12.3,5.1,12.3,11.3c0,7.2-5.1,12.3-12.3,12.3c-7.2,0-12.3-5.1-12.3-12.3C102.4,199,107.5,193.9,114.7,193.9z M219.3,193.9
		c-7.2,0-13.3,5.1-13.3,11.3c0,7.2,6.2,12.3,13.3,12.3c6.2,0,12.3-5.1,12.3-12.3C231.6,199,225.5,193.9,219.3,193.9z M183.4,315.9
		c0-5.1-2.1-6.2-5.1-9.2c8.2-22.6,13.3-61.5,13.3-70.7c0-30.8-50.2-30.8-50.2,0c0,9.2,6.2,48.2,14.4,70.7c-4.1,3.1-6.2,4.1-6.2,9.2
		C149.6,325.1,183.4,325.1,183.4,315.9z M185.5,248.2c-11.3-8.2-26.7-8.2-36.9,0C157.8,228.7,175.2,228.7,185.5,248.2z M182.4,269.7
		c-10.3-8.2-21.5-8.2-31.8,0C159.8,251.3,173.2,251.3,182.4,269.7z M178.3,289.2c-8.2-6.2-14.4-6.2-23.6,0
		C162.9,273.8,171.1,273.8,178.3,289.2z M173.2,313.8c0,3.1-12.3,3.1-12.3,0C160.9,310.8,173.2,310.8,173.2,313.8z M265.4,252.3
		C297.2,241,329,198,329,164.1c0-36.9-25.6-67.7-58.4-67.7c-14.4,0-26.7,5.1-36.9,14.4c22.6,21.5,34.9,54.3,32.8,89.2
		C278.8,220.5,276.7,239,265.4,252.3z"/>
</g>
</svg>
